assets/payment/banner/logo2.svg

<svg width="118" height="119" viewBox="0 0 118 119" fill="none" xmlns="http://www.w3.org/2000/svg">
<g clip-path="url(#clip0_37_6515)">
<path d="M85.9974 59.1014L60.1849 50.3202C59.4179 50.0547 58.5821 50.0547 57.8151 50.3202L32.0026 59.1014C30.503 59.6078 29.5 61.0091 29.5 62.5922V82.3474C29.5 106.459 56.4138 118.18 57.5594 118.667C58.4837 119.055 59.5163 119.055 60.4406 118.667C61.5862 118.175 88.5 106.459 88.5 82.3474V62.5922C88.5 61.0091 87.497 59.6078 85.9974 59.1014ZM75.1562 77.7454L61.6353 94.9537C59.9145 97.1515 56.6892 97.4711 54.5701 95.6519L45.9659 88.2769C43.9009 86.5118 43.66 83.4045 45.4349 81.3444C47.2 79.2843 50.3073 79.0483 52.3625 80.8134L57.0727 84.85L67.4222 71.6782C69.0988 69.5444 72.1865 69.1658 74.3252 70.8522C76.464 72.519 76.8377 75.6116 75.1562 77.7454Z" fill="white"/>
<path d="M19.6667 82.3479V62.5927C19.6667 56.8008 23.3542 51.6531 28.8363 49.7897L33.3547 48.2557C18.3392 45.9694 6.32775 41.7608 0 36.5098V86.7188V86.7483C0.0344167 96.1833 11.5788 102.452 27.0417 105.899C22.6511 99.3202 19.6667 91.4486 19.6667 82.3479Z" fill="white"/>
<path d="M84.6455 48.2557L89.1639 49.7946C94.6509 51.658 98.3335 56.7959 98.3335 62.5927V82.3479C98.3335 91.4486 95.3491 99.3251 90.9585 105.904C106.421 102.457 117.966 96.1883 118 86.7532C118 86.7434 118 86.7335 118 86.7237V36.5098C111.672 41.7608 99.661 45.9694 84.6455 48.2557Z" fill="white"/>
<path d="M33.4333 1.05476C18.1425 3.51309 0 8.77392 0 19.6889C0 31.7348 21.0925 36.6514 33.6792 38.5198L39.3333 39.3556V5.87309C39.3333 3.00176 36.8455 0.489342 33.4333 1.05476Z" fill="white"/>
<path d="M78.667 5.87309V39.3556L84.3212 38.5198C96.9078 36.6514 118 31.7348 118 19.6889C118 8.77393 99.8578 3.51309 84.567 1.05476C81.1548 0.489342 78.667 3.00176 78.667 5.87309Z" fill="white"/>
</g>
<defs>
<clipPath id="clip0_37_6515">
<rect width="118" height="118" fill="white" transform="translate(0 0.957031)"/>
</clipPath>
</defs>
</svg>

<svg xmlns="http://www.w3.org/2000/svg" width="118" height="119" fill="none" viewBox="0 0 118 119"><g fill="#fff" clip-path="url(#a)"><path d="m85.997 59.101-25.812-8.78a3.63 3.63 0 0 0-2.37 0L32.003 59.1a3.68 3.68 0 0 0-2.503 3.491v19.755c0 24.112 26.914 35.833 28.06 36.32a3.7 3.7 0 0 0 2.88 0c1.146-.492 28.06-12.208 28.06-36.32V62.592a3.68 3.68 0 0 0-2.503-3.49m-10.84 18.644L61.634 94.954a4.92 4.92 0 0 1-7.065.698l-8.604-7.375a4.906 4.906 0 0 1-.531-6.933 4.914 4.914 0 0 1 6.927-.53l4.71 4.036 10.35-13.172a4.91 4.91 0 0 1 6.903-.826 4.897 4.897 0 0 1 .831 6.893"/><path d="M19.667 82.348V62.593a13.52 13.52 0 0 1 9.17-12.803l4.518-1.534C18.339 45.969 6.328 41.76 0 36.51v50.239c.034 9.434 11.579 15.703 27.042 19.15-4.39-6.579-7.375-14.45-7.375-23.551m64.979-34.092 4.518 1.539a13.5 13.5 0 0 1 9.17 12.798v19.755c0 9.1-2.985 16.977-7.376 23.556 15.463-3.447 27.008-9.716 27.042-19.15V36.51c-6.328 5.25-18.339 9.46-33.354 11.746M33.433 1.055C18.143 3.513 0 8.774 0 19.689c0 12.046 21.093 16.962 33.68 18.83l5.653.837V5.873c0-2.871-2.487-5.384-5.9-4.818m45.234 4.818v33.483l5.654-.836C96.908 36.65 118 31.735 118 19.689 118 8.774 99.858 3.513 84.567 1.055c-3.412-.566-5.9 1.947-5.9 4.818"/></g><defs><clipPath id="a"><path fill="#fff" d="M0 .957h118v118H0z"/></clipPath></defs></svg>
